raw/symbols/mkr.svg

<svg width="42" height="42" viewBox="0 0 42 42" fill="none" xmlns="http://www.w3.org/2000/svg">
<circle cx="21" cy="21" r="20" fill="#1AAB9B"/>
<path d="M10.1273 28V17.0132L18.4592 23.2839V28H20.5858V22.8412C20.5854 22.6495 20.5406 22.4605 20.4548 22.289C20.3691 22.1176 20.2448 21.9683 20.0917 21.853L9.98727 14.2455C9.80245 14.1082 9.58319 14.0249 9.35386 14.0048C9.12452 13.9846 8.8941 14.0285 8.68818 14.1314C8.48227 14.2344 8.30894 14.3924 8.18745 14.588C8.06596 14.7835 8.00107 15.0089 8 15.2392V28H10.1273ZM33.17 28V17.0132L24.8381 23.2839V28H22.7115V22.8412C22.7119 22.6495 22.7568 22.4605 22.8425 22.289C22.9282 22.1176 23.0525 21.9683 23.2056 21.853L33.3101 14.2486C33.4947 14.1115 33.7136 14.0282 33.9427 14.0079C34.1718 13.9877 34.402 14.0313 34.6078 14.1338C34.8136 14.2364 34.9869 14.394 35.1087 14.5891C35.2304 14.7842 35.2957 15.0092 35.2973 15.2392V28H33.17Z" fill="#F3F3F3"/>
</svg>

<svg xmlns="http://www.w3.org/2000/svg" width="42" height="42" fill="none"><circle cx="21" cy="21" r="20" fill="#1AAB9B"/><path fill="#F3F3F3" d="M10.127 28V17.013l8.332 6.27V28h2.127v-5.159a1.24 1.24 0 0 0-.494-.988L9.987 14.245A1.244 1.244 0 0 0 8 15.24V28h2.127Zm23.043 0V17.013l-8.332 6.27V28h-2.127v-5.159a1.241 1.241 0 0 1 .495-.988l10.104-7.604a1.245 1.245 0 0 1 1.987.99V28H33.17Z"/></svg>
